X: 5808
T: Caledonian
R: reel
M: 4/4
K: Amajor
|:A2 EA cAeA|aAec B/B/B B2|A2 EA cAeA|dBec A/A/A A2:|
|:a2 ec acec|acec B/B/B B2|a2 ec Aaec|dBec A/A/A A2:|

